build/img/icons/search.svg

<svg width="24" height="24" viewBox="0 0 24 24" fill="none" xmlns="http://www.w3.org/2000/svg">
<path d="M10 18C11.775 17.9996 13.4988 17.4054 14.897 16.312L19.293 20.708L20.707 19.294L16.311 14.898C17.405 13.4997 17.9996 11.7754 18 10C18 5.589 14.411 2 10 2C5.589 2 2 5.589 2 10C2 14.411 5.589 18 10 18ZM10 4C13.309 4 16 6.691 16 10C16 13.309 13.309 16 10 16C6.691 16 4 13.309 4 10C4 6.691 6.691 4 10 4Z" fill="#5CC773"/>
<path d="M11.4138 8.58609C11.7928 8.96609 12.0018 9.46809 12.0018 10.0001H14.0018C14.0027 9.47451 13.8994 8.95398 13.6979 8.46857C13.4963 7.98316 13.2006 7.54251 12.8278 7.17209C11.3138 5.66009 8.68878 5.66009 7.17578 7.17209L8.58778 8.58809C9.34778 7.83009 10.6578 7.83209 11.4138 8.58609Z" fill="#5CC773"/>
</svg>

<svg width="24" height="24" fill="none" xmlns="http://www.w3.org/2000/svg">
    <path d="M10 18a7.952 7.952 0 0 0 4.897-1.688l4.396 4.396 1.414-1.414-4.396-4.396A7.952 7.952 0 0 0 18 10c0-4.411-3.589-8-8-8s-8 3.589-8 8 3.589 8 8 8zm0-14c3.309 0 6 2.691 6 6s-2.691 6-6 6-6-2.691-6-6 2.691-6 6-6z" fill="#5CC773"/>
    <path d="M11.414 8.586c.379.38.588.882.588 1.414h2a3.977 3.977 0 0 0-1.174-2.828c-1.514-1.512-4.14-1.512-5.652 0l1.412 1.416c.76-.758 2.07-.756 2.826-.002z" fill="#5CC773"/>
</svg>
